.local/share/icons/Gruvbox-Plus-Dark/panel/16/skype-status-disturb.svg

<svg xmlns="http://www.w3.org/2000/svg" width="16" height="16" version="1">
 <defs>
  <style id="current-color-scheme" type="text/css">
   .ColorScheme-Text { color:#ebdbb2; } .ColorScheme-Highlight { color:#458588; }
  </style>
 </defs>
 <path style="fill:currentColor" class="ColorScheme-Text" d="M 4.5,1 C 2.5670034,1 1,2.5670034 1,4.5 1.0013473,5.4560274 1.3937103,6.3698943 2.0859375,7.0292969 2.0310192,7.3499992 2.0022786,7.6746374 2,8 c 0,3.313708 2.6862915,6 6,6 0.3252563,-9.88e-4 0.6498937,-0.02842 0.9707031,-0.08203 C 9.6307721,14.608757 10.544553,14.999672 11.5,15 13.432997,15 15,13.432997 15,11.5 14.998653,10.543972 14.606289,9.6301056 13.914062,8.9707031 13.96898,8.6500008 13.997721,8.3253626 14,8 14,4.6862915 11.313708,2 8,2 7.6747437,2.0009878 7.3501063,2.0284219 7.0292969,2.0820312 6.369228,1.391243 5.4554471,1.0003283 4.5,1 Z M 4,7 12,7 12,9 4,9 Z"/>
 <path style="fill:currentColor" class="ColorScheme-Text" d="M -25.069,-9.0812"/>
</svg>

<svg width="16" height="16" version="1.1" xmlns="http://www.w3.org/2000/svg">
  <defs>
    <style id="current-color-scheme" type="text/css">.ColorScheme-Text { color:#ebdbb2; } .ColorScheme-Highlight { color:#458588; } .ColorScheme-NeutralText { color:#fe8019; } .ColorScheme-PositiveText { color:#689d6a; } .ColorScheme-NegativeText { color:#fb4934; }</style>
  </defs>
  <path class="ColorScheme-Text" d="m4.5 1c-1.933 0-3.5 1.567-3.5 3.5 0.001347 0.956 0.3937 1.87 1.086 2.529-0.05492 0.3207-0.08366 0.6453-0.08594 0.9707 0 3.314 2.686 6 6 6 0.3253-9.88e-4 0.6499-0.02842 0.9707-0.08203 0.6601 0.6908 1.574 1.082 2.529 1.082 1.933 0 3.5-1.567 3.5-3.5-0.001347-0.956-0.3937-1.87-1.086-2.529 0.05492-0.3207 0.08366-0.6453 0.08594-0.9707 0-3.314-2.686-6-6-6-0.3253 9.878e-4 -0.6499 0.02842-0.9707 0.08203-0.6601-0.6908-1.574-1.082-2.529-1.082zm-0.5 6h8v2h-8z" fill="currentColor"/>
  <path class="ColorScheme-Text" d="m-25.07-9.081" fill="currentColor"/>
</svg>
